X:1
T:Title
%%score { ( 1 3 ) | 2 }
L:1/8
M:4/4
K:G
V:1 treble nm="Grand Piano"
V:3 treble 
V:2 bass 
V:1
 z4 z2[Q:1/4=110] D2 | G2 GF G2 A2 | G4 D3 D | _B2 BA GF A2 | [_B,G]6 A2 | _BA G2 AGFF | %6
 G4 ^D3 =D | ^D2 FG AGFD |[M:3/4] D6 |[M:1/4] D2 |[M:4/4] G2 _B2 d2 c2 | _B2 c2 A3 G | %12
 F2 G2 c2 _B2 | A6 G2 | F2 G2 c2 _B2 | A2 G2 =F3 ^D | G2 =F2 ^D2 FD |[M:3/4] D6 |[M:1/4] D2 | %19
[M:4/4] _B2 A2 G4 | G6 G2 | A2 G2 =F4 | =F6 ^DD | G2 =F2 ^D2 FD | D6 z2 |[M:1/4] D2 | %26
[M:4/4] _B2 A2 G4 | G6 G2 | A2 G2 =F4 | =F6 ^DD | G2 =F2 ^D2 FD | D6 z2 |] %32
V:2
 z4 z2 [G,_B,]2 | [G,_B,]6 D,2 | [G,_B,]4 [G,B,]4 | [G,_B,]2 [G,B,]2 B,2 D,2 | G,2 D,2 G,,2 z2 | %5
 [G,_B,]4 [D,F,]2 F,2 | [G,_B,]8 | C,2 D,2 F,2 A,2 |[M:3/4] [D,F,A,]6 |[M:1/4] z2 | %10
[M:4/4] [G,_B,]4 F,2 A,2 | ^D,4 [=D,F,A,]4 | D,4 F,4 | [D,CD]6 [C,^D,]2 | [D,C]4 ^D,2 G,2 | %15
 F,2 ^D,2 =D,3 C, | [C,^D,G,]8 |[M:3/4] [D,F,]6 |[M:1/4] z2 |[M:4/4] [G,_B,]4 G,2 G,,2 | G,4 G,,4 | %21
 [F,A,]2 G,2 [=F,A,]4 | =F,6 C,C, | [C,^D,G,]2 =F,2 [C,G,]2 [F,A,]2 | [G,,_B,,D,]6 z2 |[M:1/4] z2 | %26
[M:4/4] [G,_B,]4 G,2 G,,2 | G,4 G,,4 | [F,A,]2 G,2 [=F,A,]4 | =F,6 C,C, | %30
 [C,^D,G,]2 =F,2 [C,G,]2 [F,A,]2 | [G,,_B,,D,]6 z2 |] %32
V:3
 x8 | x8 | x8 | x8 | x8 | x8 | x8 | x8 |[M:3/4] x6 |[M:1/4] x2 |[M:4/4] x8 | x8 | x8 | x8 | x8 | %15
 x8 | x8 |[M:3/4] x6 |[M:1/4] x2 |[M:4/4] x8 | _B,4 z4 | x8 | x8 | x8 | x8 |[M:1/4] x2 | %26
[M:4/4] x8 | _B,4 z4 | x8 | x8 | x8 | x8 |] %32

